lib/preview/nrk-logo-preview-nrk-jazz-title-below-on-light.svg

<svg width="35" height="31" viewBox="0 0 35 31" fill="none" xmlns="http://www.w3.org/2000/svg">
<path d="M0 12.9982V0.999259H3.93719V12.9982H0ZM9.29381 2.90895L11.5581 12.9982H7.24917L4.54549 0.999259H6.96218C7.51635 0.992067 8.05406 1.18742 8.4745 1.54856C8.89562 1.89455 9.18495 2.37487 9.29381 2.90895ZM12.1495 12.9982V0.999259H16.0867V12.9982H12.1495ZM19.0605 5.56227C18.6362 5.56641 18.2188 5.4554 17.8525 5.24113C17.4912 5.03229 17.1911 4.73213 16.9823 4.37077C16.7678 4.0045 16.6568 3.58693 16.661 3.16249C16.6561 2.74063 16.7672 2.32555 16.9823 1.9626C17.1933 1.60516 17.4931 1.30826 17.8525 1.10069C18.2189 0.886671 18.6362 0.775684 19.0605 0.779553C19.4822 0.775011 19.8971 0.886098 20.2602 1.10069C20.616 1.31008 20.9127 1.60673 21.122 1.9626C21.3368 2.32565 21.4479 2.74066 21.4433 3.16249C21.4473 3.5869 21.3363 4.0044 21.122 4.37077C20.9149 4.73054 20.6179 5.03045 20.2602 5.24113C19.8971 5.45615 19.4819 5.56726 19.0599 5.56227H19.0605ZM22.0516 12.9982V0.999259H25.9892V12.9982H22.0516ZM30.9737 7.5564C30.9848 7.56804 31.0693 7.70605 31.2272 7.97044C31.3851 8.23483 31.5906 8.57285 31.8439 8.98446C32.0974 9.39587 32.3649 9.83243 32.6463 10.2942C32.9278 10.7559 33.1926 11.1925 33.4408 11.6039C33.6881 12.0154 33.9697 12.4801 34.2857 12.9982H29.9598C29.6893 12.5588 29.4441 12.1616 29.2245 11.8067C29.0048 11.4518 28.7713 11.0688 28.5238 10.6575C28.2758 10.2467 28.0306 9.84671 27.7882 9.45763C27.5458 9.06856 27.3375 8.72778 27.1633 8.43523C26.9883 8.14248 26.8671 7.94529 26.7997 7.84371C26.6325 7.59161 26.5336 7.30046 26.5127 6.99871C26.5294 6.7091 26.6226 6.42915 26.7828 6.18728C26.8504 6.07461 26.9743 5.8746 27.1545 5.5873C27.3348 5.3 27.546 4.95922 27.7882 4.56489C28.0304 4.17056 28.2756 3.76777 28.5238 3.35654C28.772 2.94531 29.0056 2.5594 29.2245 2.19887C29.4445 1.83872 29.6897 1.43876 29.9598 0.998984H34.2857L30.9396 6.45767C30.8361 6.61973 30.7777 6.80651 30.7706 6.99871C30.7818 7.20049 30.8522 7.39449 30.9731 7.5564H30.9737Z" fill="#0A2343"/>
<path d="M3.26371 27.4097C3.26685 27.6058 3.23262 27.8006 3.16281 27.9837C3.0996 28.1463 3.00202 28.2931 2.8768 28.4142C2.74676 28.5363 2.59171 28.6285 2.42254 28.6843C2.22718 28.7487 2.02253 28.7801 1.81692 28.7772C1.68233 28.7772 1.55613 28.7715 1.43837 28.7603C1.3206 28.749 1.20284 28.735 1.08507 28.7181C0.967309 28.7012 0.849611 28.6814 0.731848 28.6587C0.614084 28.636 0.493505 28.6108 0.370134 28.583C0.246762 28.5549 0.123372 28.5239 0 28.4902L0.134582 30.0096C0.2916 30.0546 0.443043 30.0967 0.588846 30.1359C0.734649 30.1756 0.8804 30.2091 1.0262 30.2375C1.17634 30.266 1.32804 30.2856 1.48047 30.2963C1.63749 30.3076 1.81129 30.3133 2.00195 30.3135C2.39088 30.3196 2.7788 30.2712 3.15439 30.1697C3.46076 30.0862 3.7489 29.946 4.00398 29.7564C4.23398 29.5823 4.43065 29.3678 4.5844 29.1233C4.73722 28.878 4.85074 28.6101 4.92086 28.3295C4.9948 28.0342 5.03151 27.7308 5.03018 27.4263V18.141H3.26371V27.4097Z" fill="#2B0B4F"/>
<path d="M14.9896 29.0642C14.8666 29.0755 14.7428 29.0568 14.6286 29.0098C14.5143 28.9628 14.4131 28.8888 14.3335 28.7941C14.1775 28.5236 14.1126 28.2098 14.1484 27.8993L14.1821 24.4215C14.1858 24.057 14.1405 23.6935 14.0475 23.3411C13.9658 23.0319 13.8289 22.7401 13.6437 22.4798C13.4565 22.2254 13.2188 22.0127 12.9455 21.8551C12.628 21.6744 12.2848 21.5435 11.9278 21.4671C11.4912 21.3725 11.0454 21.3272 10.5987 21.3321C10.2444 21.3318 9.89034 21.3543 9.53884 21.3993C9.20673 21.4415 8.8779 21.5064 8.55466 21.5937C8.25487 21.6752 7.96001 21.7739 7.67146 21.8892L7.46952 23.3242C7.74991 23.2231 8.01631 23.1387 8.26866 23.0709C8.52101 23.0032 8.76498 22.947 9.00051 22.9021C9.23129 22.8579 9.46439 22.827 9.69868 22.8096C9.92822 22.7927 10.1553 22.7841 10.38 22.7839C10.7231 22.7767 11.0655 22.8164 11.3978 22.9021C11.6403 22.963 11.8633 23.0852 12.0455 23.2569C12.2078 23.4238 12.3238 23.6304 12.382 23.8563C12.4537 24.1346 12.4877 24.4214 12.4829 24.7088L12.4809 25.1323L10.5146 25.2659C9.84202 25.2848 9.17941 25.4338 8.56308 25.7046C8.10198 25.9072 7.70384 26.231 7.41065 26.6416C7.16192 27.0071 7.02994 27.4398 7.03217 27.8824C7.02906 28.2978 7.13026 28.7072 7.32652 29.0729C7.53241 29.4483 7.8421 29.756 8.21821 29.9589C8.67714 30.1986 9.19002 30.3149 9.70703 30.2966C10.1914 30.3077 10.6736 30.2277 11.1286 30.0605C11.522 29.9061 11.8819 29.6767 12.1885 29.3852C12.3049 29.2733 12.4154 29.1552 12.5193 29.0316C12.552 29.2064 12.6136 29.3746 12.7016 29.529C12.8517 29.7874 13.0822 29.9891 13.3577 30.103C13.6623 30.2259 13.9885 30.2861 14.3167 30.2803C14.4176 30.2803 14.5158 30.2772 14.6111 30.2718C14.7047 30.2662 14.7976 30.252 14.8887 30.2294C14.9784 30.2069 15.0594 30.1874 15.1326 30.1703C15.1985 30.1557 15.2632 30.1359 15.3261 30.1112L15.5112 28.9804C15.4183 29.0122 15.3225 29.0349 15.2252 29.0479C15.147 29.0581 15.0684 29.0636 14.9896 29.0642ZM12.1885 28.3045C12.0061 28.4492 11.8087 28.5739 11.5997 28.6762C11.3914 28.7777 11.1709 28.8515 10.9436 28.8957C10.708 28.9411 10.4685 28.9636 10.2286 28.9629C9.9544 28.9709 9.68172 28.919 9.42945 28.811C9.22416 28.7217 9.05104 28.5716 8.93322 28.3807C8.81666 28.1784 8.75839 27.9475 8.76496 27.7139C8.74871 27.4323 8.8256 27.1533 8.98367 26.9201C9.16688 26.7057 9.41508 26.5575 9.69026 26.4981C10.1201 26.3967 10.5611 26.3514 11.0025 26.3633H12.4756L12.4681 28.0389C12.3826 28.1351 12.2891 28.2242 12.1885 28.3045Z" fill="#2B0B4F"/>
<path d="M23.4683 22.7164L23.2664 21.5174H16.7726L16.5707 22.868H21.4562L16.4196 28.9795L16.6215 30.1275H23.4854L23.6705 28.76H18.5284L23.4683 22.7164Z" fill="#2B0B4F"/>
<path d="M27.0071 28.7603L31.9476 22.7167L31.7454 21.5178H25.2516L25.0497 22.8684H29.9349L24.8983 28.9798L25.1002 30.1278H31.9641L32.1492 28.7603H27.0071Z" fill="#2B0B4F"/>
</svg>

<svg xmlns="http://www.w3.org/2000/svg" viewBox="0 0 35 31"><path fill="#0A2343" d="M0 12.998V1h3.937v12H0ZM9.294 2.91l2.264 10.09H7.25l-2.704-12h2.417a2.276 2.276 0 0 1 1.513.55c.42.346.71.826.819 1.36Zm2.855 10.09v-12h3.938v12h-3.938Zm6.912-7.437a2.382 2.382 0 0 1-2.4-2.4 2.301 2.301 0 0 1 .321-1.2 2.41 2.41 0 0 1 3.278-.861c.356.21.653.506.862.862.215.363.326.778.321 1.2a2.35 2.35 0 0 1-.321 1.208 2.4 2.4 0 0 1-.862.87 2.302 2.302 0 0 1-1.2.321Zm2.99 7.436V1h3.938v12h-3.937Zm8.923-5.442c.01.012.095.15.253.414.158.265.364.603.617 1.014a312.115 312.115 0 0 1 1.597 2.62c.247.411.529.876.845 1.394H29.96c-.27-.44-.516-.836-.736-1.191-.22-.355-.453-.738-.7-1.15-.248-.41-.493-.81-.736-1.2-.242-.388-.45-.73-.625-1.022a17.97 17.97 0 0 0-.363-.591 1.747 1.747 0 0 1-.287-.845c.016-.29.11-.57.27-.812.067-.112.191-.312.371-.6a182.106 182.106 0 0 0 1.37-2.23l.7-1.158.736-1.2h4.326L30.94 6.458a1.08 1.08 0 0 0-.17.54c.012.202.082.396.203.558Z"/><path fill="#2B0B4F" d="M3.264 27.41c.003.196-.031.39-.101.574-.063.162-.161.31-.286.43-.13.122-.285.214-.454.27a1.85 1.85 0 0 1-.606.093c-.135 0-.26-.006-.379-.017a7.59 7.59 0 0 1-.706-.101A8.937 8.937 0 0 1 0 28.49l.135 1.519c.157.045.308.087.454.126.146.04.291.073.437.102a3.9 3.9 0 0 0 .454.058c.157.012.331.017.522.018.389.006.777-.043 1.152-.144.307-.084.595-.224.85-.414.23-.174.427-.388.58-.633.153-.245.267-.513.337-.794.074-.295.11-.598.11-.903v-9.285H3.263v9.269ZM14.99 29.064a.765.765 0 0 1-.656-.27 1.457 1.457 0 0 1-.186-.895l.034-3.477a4.073 4.073 0 0 0-.135-1.08 2.656 2.656 0 0 0-.403-.862 2.283 2.283 0 0 0-.699-.625 3.566 3.566 0 0 0-1.017-.388 5.967 5.967 0 0 0-1.33-.135c-.354 0-.708.022-1.06.067-.331.043-.66.107-.983.195-.3.081-.595.18-.884.295l-.201 1.435A10.06 10.06 0 0 1 9 22.902c.231-.044.464-.075.699-.092a9.39 9.39 0 0 1 .681-.026 3.76 3.76 0 0 1 1.018.118c.242.061.465.183.648.355.162.167.278.373.336.6.072.278.106.564.1.852l-.001.423-1.966.134a5.215 5.215 0 0 0-1.952.439c-.461.202-.86.526-1.152.937-.25.365-.381.798-.379 1.24-.003.416.098.825.295 1.19.205.376.515.684.891.887.46.24.972.356 1.489.338.484.01.967-.07 1.422-.236a3.275 3.275 0 0 0 1.06-.676c.116-.112.226-.23.33-.353.033.174.095.343.183.497.15.258.38.46.656.574.304.123.63.183.959.177.1 0 .199-.003.294-.008.094-.006.187-.02.278-.043l.244-.059c.066-.014.13-.034.193-.059l.185-1.13a1.494 1.494 0 0 1-.286.067c-.078.01-.157.016-.235.016Zm-2.802-.76c-.182.145-.38.27-.588.372a2.654 2.654 0 0 1-.656.22 3.722 3.722 0 0 1-.715.067 1.89 1.89 0 0 1-.8-.152 1.098 1.098 0 0 1-.496-.43 1.265 1.265 0 0 1-.168-.667c-.016-.282.06-.56.219-.794.183-.214.431-.363.706-.422.43-.101.871-.147 1.313-.135h1.473l-.008 1.676a2.265 2.265 0 0 1-.28.265ZM23.468 22.716l-.202-1.199h-6.493l-.202 1.351h4.885L16.42 28.98l.201 1.148h6.864l.186-1.368h-5.143l4.94-6.044ZM27.007 28.76l4.94-6.043-.202-1.2h-6.493l-.202 1.351h4.885l-5.037 6.112.202 1.148h6.864l.185-1.368h-5.142Z"/></svg>
